X: 16091
T: Green Fields Of Woodford, The
R: jig
M: 6/8
K: Gmajor
|:dBA G2E|EDE G3|edB dBA|Bee ege|
dBA G2E|EDE G3|AGE A3|1 GED D2d:|2 GED D2c||
|:BGG dGG|edB dBA|BGG dGG|edB ~A3|
BGG deg|age ~d3|GAB AGE|1 GED D2c:|2 GED D2d||

